public/images/icons/user-circle.svg

<svg width="32" height="32" viewBox="0 0 32 32" fill="none" xmlns="http://www.w3.org/2000/svg">
<g clip-path="url(#clip0_16604_1656)">
<circle cx="16" cy="16" r="15.25" stroke="#9394A0" stroke-width="1.5" stroke-linecap="round" stroke-linejoin="round"/>
<path d="M7.05176 28.3486C8.13793 29.1171 9.67357 29.9809 11.5059 30.5762C9.89004 30.0786 8.38921 29.3195 7.05176 28.3486ZM24.9473 28.3486C23.6097 29.3194 22.1091 30.0786 20.4932 30.5762C22.3255 29.9811 23.8609 29.1171 24.9473 28.3486ZM16 0.75C24.4223 0.75 31.25 7.57766 31.25 16C31.25 20.5084 29.2927 24.5587 26.1826 27.3506C24.0321 24.0026 22.3783 21.7842 16 21.7842C9.62148 21.7842 7.96714 24.0023 5.81641 27.3506C2.70666 24.5587 0.75 20.5081 0.75 16C0.75 7.57766 7.57766 0.75 16 0.75Z" fill="#9394A0" fill-opacity="0.15"/>
<path d="M7.05176 28.3486L7.48494 27.7364C7.14825 27.4982 6.6824 27.5765 6.44214 27.9117C6.20189 28.247 6.27741 28.7133 6.61118 28.9556L7.05176 28.3486ZM11.5059 30.5762L11.2851 31.293C11.6788 31.4142 12.0967 31.1952 12.2209 30.8024C12.3452 30.4096 12.1294 29.9902 11.7376 29.8629L11.5059 30.5762ZM24.9473 28.3486L25.3878 28.9556C25.7216 28.7133 25.7971 28.247 25.5569 27.9118C25.3167 27.5765 24.8508 27.4982 24.5141 27.7363L24.9473 28.3486ZM20.4932 30.5762L20.2615 29.8629C19.8697 29.9901 19.6538 30.4096 19.7781 30.8024C19.9023 31.1951 20.3201 31.4142 20.7139 31.293L20.4932 30.5762ZM26.1826 27.3506L25.5516 27.7559C25.6704 27.9409 25.8644 28.0644 26.0823 28.0938C26.3002 28.1233 26.52 28.0556 26.6836 27.9087L26.1826 27.3506ZM16 21.7842L16 21.0342L16 21.0342L16 21.7842ZM5.81641 27.3506L5.31537 27.9087C5.47898 28.0556 5.6988 28.1233 5.9167 28.0939C6.13459 28.0644 6.32861 27.9409 6.44744 27.7559L5.81641 27.3506ZM7.05176 28.3486L6.61858 28.9609C7.75656 29.766 9.35933 30.6674 11.2741 31.2895L11.5059 30.5762L11.7376 29.8629C9.98781 29.2944 8.5193 28.4682 7.48494 27.7364L7.05176 28.3486ZM11.5059 30.5762L11.7266 29.8594C10.1911 29.3865 8.76433 28.665 7.49234 27.7417L7.05176 28.3486L6.61118 28.9556C8.01409 29.9739 9.58898 30.7706 11.2851 31.293L11.5059 30.5762ZM24.9473 28.3486L24.5067 27.7417C23.2346 28.665 21.808 29.3866 20.2725 29.8594L20.4932 30.5762L20.7139 31.293C22.4102 30.7707 23.9849 29.9739 25.3878 28.9556L24.9473 28.3486ZM20.4932 30.5762L20.7248 31.2895C22.6398 30.6676 24.2423 29.766 25.3804 28.9609L24.9473 28.3486L24.5141 27.7363C23.4795 28.4683 22.0112 29.2946 20.2615 29.8629L20.4932 30.5762ZM16 0.75V1.5C24.0081 1.5 30.5 7.99187 30.5 16H31.25H32C32 7.16344 24.8366 0 16 0V0.75ZM31.25 16H30.5C30.5 20.2864 28.64 24.1367 25.6816 26.7925L26.1826 27.3506L26.6836 27.9087C29.9453 24.9807 32 20.7303 32 16H31.25ZM26.1826 27.3506L26.8136 26.9452C25.744 25.28 24.7178 23.7566 23.0888 22.6853C21.443 21.6028 19.2723 21.0342 16 21.0342V21.7842V22.5342C19.106 22.5342 20.9513 23.0748 22.2646 23.9385C23.5947 24.8133 24.4707 26.0731 25.5516 27.7559L26.1826 27.3506ZM16 21.7842L16 21.0342C12.7276 21.0342 10.5568 21.6027 8.91071 22.6851C7.28152 23.7565 6.25512 25.2798 5.18537 26.9453L5.81641 27.3506L6.44744 27.7559C7.52843 26.073 8.40456 24.8132 9.73486 23.9384C11.0483 23.0747 12.8939 22.5342 16 22.5342L16 21.7842ZM5.81641 27.3506L6.31745 26.7925C3.35938 24.1368 1.5 20.2862 1.5 16H0.75H0C0 20.73 2.05395 24.9806 5.31537 27.9087L5.81641 27.3506ZM0.75 16H1.5C1.5 7.99187 7.99187 1.5 16 1.5V0.75V0C7.16344 0 0 7.16344 0 16H0.75Z" fill="#9394A0"/>
<circle cx="15.9999" cy="12.8448" r="3.68103" stroke="#9394A0" stroke-width="1.5" stroke-linecap="round" stroke-linejoin="round"/>
</g>
<defs>
<clipPath id="clip0_16604_1656">
<rect width="32" height="32" fill="white"/>
</clipPath>
</defs>
</svg>

<svg xmlns="http://www.w3.org/2000/svg" width="32" height="32" fill="none"><g clip-path="url(#a)"><circle cx="16" cy="16" r="15.25" stroke="#9394a0" stroke-linecap="round" stroke-linejoin="round" stroke-width="1.5"/><path fill="#9394a0" fill-opacity=".15" d="M7.052 28.349a16.9 16.9 0 0 0 4.454 2.227 15.2 15.2 0 0 1-4.454-2.227m17.895 0a15.2 15.2 0 0 1-4.454 2.227 16.9 16.9 0 0 0 4.454-2.227M16 .75C24.422.75 31.25 7.578 31.25 16a15.2 15.2 0 0 1-5.067 11.35c-2.15-3.347-3.805-5.566-10.183-5.566s-8.033 2.218-10.184 5.567A15.2 15.2 0 0 1 .75 16C.75 7.578 7.578.75 16 .75"/><path fill="#9394a0" d="m7.052 28.349.433-.613a.75.75 0 0 0-.874 1.22zm4.454 2.227-.22.717a.75.75 0 0 0 .452-1.43zm13.441-2.227.44.607a.75.75 0 0 0-.873-1.22zm-4.454 2.227-.231-.713a.75.75 0 0 0 .452 1.43zm5.69-3.225-.631.405a.75.75 0 0 0 1.132.153zM16 21.784v-.75zM5.816 27.351l-.5.558a.75.75 0 0 0 1.131-.153zm1.236.998-.433.612a17.6 17.6 0 0 0 4.655 2.329l.232-.714.232-.713a16.1 16.1 0 0 1-4.253-2.127zm4.454 2.227.22-.717a14.5 14.5 0 0 1-4.234-2.117l-.44.607-.44.607a16 16 0 0 0 4.673 2.337zm13.441-2.227-.44-.607a14.4 14.4 0 0 1-4.235 2.117l.221.717.22.717a16 16 0 0 0 4.675-2.337zm-4.454 2.227.232.713a17.6 17.6 0 0 0 4.655-2.328l-.433-.612-.433-.613a16.1 16.1 0 0 1-4.252 2.127zM16 .75v.75c8.008 0 14.5 6.492 14.5 14.5H32c0-8.837-7.163-16-16-16zM31.25 16h-.75a14.46 14.46 0 0 1-4.818 10.793l.5.558.502.558A15.96 15.96 0 0 0 32 16zm-5.067 11.35.63-.405c-1.069-1.665-2.095-3.188-3.724-4.26-1.646-1.082-3.817-1.65-7.089-1.65v1.5c3.106 0 4.951.54 6.265 1.404 1.33.874 2.206 2.134 3.287 3.817zM16 21.785v-.75c-3.272 0-5.443.569-7.09 1.651-1.628 1.072-2.655 2.595-3.725 4.26l.631.406.631.405c1.081-1.683 1.958-2.943 3.288-3.818 1.313-.863 3.159-1.404 6.265-1.404zM5.816 27.351l.501-.558A14.46 14.46 0 0 1 1.5 16H0c0 4.73 2.054 8.98 5.315 11.909zM.75 16h.75C1.5 7.992 7.992 1.5 16 1.5V0C7.163 0 0 7.163 0 16z"/><circle cx="16" cy="12.845" r="3.681" stroke="#9394a0" stroke-linecap="round" stroke-linejoin="round" stroke-width="1.5"/></g><defs><clipPath id="a"><path fill="#fff" d="M0 0h32v32H0z"/></clipPath></defs></svg>
